X: 1961
T: Yandıkça Oldu Sûzân
C: Tanburî Ali Efendi
O: Turkey
F: http://compmusic.upf.edu/node/140
N: suzidil--sarki--evfer--yandikca_oldu--tanburi_ali_efendi
N: makam= suzidil
N: form= sarki
N: usul= evfer = 9/8
M: 9/8
L: 1/16
K: C ^1/4f ^g ^d 
Q: 1/4=144
%%MIDI tuningsystem comma53
A4 e4 a4 e2e4 | g2 a6gf2e{f}e2 d4  | \
w:  *  Yan dık ça  ol  |  du  sû zân   | 
z4 e4 f2e2 .b2ba {b}ag | 
w:  kalb_ i  *  şe rer   | 
ga gff2 {g}fee3/2g/ fe{f}e4cB  | A4 e4 a4 e2e4 | \
w:  fe *  şâ *  *  *  *  *  nım   *  *  *  *  *  SAZ  |  *  Yan dık ça  ol  | 
g2 a6gf2e{f}e2 d4  | 
w:  du  sû zân   | 
z4 e4 f2e2 .b2ba {b}ag | ga gff2 {g}fee3/2g/ fe{f}e4e^3/4f  | 
w:  kalb_ i  *  şe rer   |  fe *  şâ *  *  *  *  *  nım   *  *  *  *  *  SAZ  | 
=g^2/4fe=d e2^3/4f2 g4 g2g4 | =g2 a_bab agg3/2b/ agfe =d4  | 
w:  *  *  *  *  Ol *  du  yi ne   |  a lev *  *  *  *  *  riz   | 
z4 c4 =d2e2 e2e4 | c2 c6BA GAB4GF  | \
w:  dağ_ ı  *  gam_ ı   |  ni hâ nım   *  *  *  *  SAZ  | 
E4 E4 G2A2 B2{=d}cB A2 | 
w:  *  Ol du  *  yi *  ne   | 
e2 e4 =d2d3/2f/ edcB A2GF  | E4 E4 F2E2 BcBA2G | 
w:  a lev *  riz  *  *  *  *  *  *  SAZ  |  *  dağ_ ı  *  gam_ *  ı   | 
GA GFF2 {G}FEE2 FE{F}E4=g2  | {b}a=g^2/4fe g2ga a4 a2a4 | 
w:  ni *  hâ *  *  *  *  *  nım   *  *  *  *  SAZ  |  *  *  *  *  *  Nâr_ *  *  ı  le hîb_  | 
a2 a2{b}a2 bc'ba {b}a=ga4g2  | {b}a=g^2/4fe g4 a2b2 b2b2 {c'}ba | 
w:  i  aş *  *  *  *  kın  *  *  *  *  *  SAZ  |  *  *  *  *  *  sû zâ *  nı yım   | 
ac' ba{b}a3=gg3/2b/ ag{a}g4(3^3/4fef  | \
w:  a *  nın *  *  *  *  çün    | 
=d4 d2de e4 e2e4 | 
w:  *  Nâr_ *  *  ı  le hîb_  | 
g2 a4 bc'ba gfe2 .d4  | z4 e4 f2e2 b2ba2g | \
w:  i  aş *  *  kın   |  sû zâ *  nı yım   | 
g3/2a/ gff2 {g}fee3/2g/ fe{f}e4e^3/4f  | 
w:  a *  nın *  *  *  *  *  çün   *  *  *  *  *  SAZ  | 
=g^2/4fe=d e2^3/4f2 g4 g2g4 | =g2 a_bab agg3/2b/ agfe =d4  | 
w:  *  *  *  *  Ol *  du  yi ne   |  a lev *  *  *  *  *  riz   | 
z4 c4 =d2e2 e2e4 | c2 c6BA GAB4GF  | \
w:  dağ_ ı  *  gam_ ı   |  ni hâ nım   *  *  *  *  SAZ  | 
E4 E4 G2A2 B2{=d}cB A2 | 
w:  *  Ol du  *  yi *  ne   | 
e2 e4 =d2d3/2f/ edcB A2GF  | E4 E4 F2E2 BcBA2G | 
w:  a lev *  riz  *  *  *  *  *  *  SAZ  |  *  dağ_ ı  *  gam_ *  ı   | 
GA GFF2 {G}FEE2 FE{F}E4|
w:  ni *  hâ *  *  *  *  *  nım    | 


